material/.icons/material/exponent.svg

<svg xmlns="http://www.w3.org/2000/svg" viewBox="0 0 24 24"><path d="M15.38 3l2.39 5.75c-.22.93-.5 1.57-.77 1.95-.33.48-.56.55-.81.55v1.5c.75 0 1.55-.4 2.05-1.19C19.87 8.94 22 3 22 3h-1.62l-1.69 4.05L17 3h-1.62M3.42 8.59L2 10l4.79 4.79L2 19.59 3.41 21l4.8-4.79L13 21l1.41-1.41-4.79-4.8L14.41 10 13 8.59l-4.79 4.79-4.8-4.79h.01z"/></svg>

<?xml version="1.0" encoding="UTF-8"?><!DOCTYPE svg PUBLIC "-//W3C//DTD SVG 1.1//EN" "http://www.w3.org/Graphics/SVG/1.1/DTD/svg11.dtd"><svg xmlns="http://www.w3.org/2000/svg" xmlns:xlink="http://www.w3.org/1999/xlink" version="1.1" id="mdi-exponent" width="24" height="24" viewBox="0 0 24 24"><path d="M15.38,3L17.77,8.75C17.55,9.68 17.27,10.32 17,10.7C16.67,11.18 16.44,11.25 16.19,11.25V12.75C16.94,12.75 17.74,12.35 18.24,11.56C19.87,8.94 22,3 22,3H20.38L18.69,7.05L17,3H15.38M3.42,8.59L2,10L6.79,14.79L2,19.59L3.41,21L8.21,16.21L13,21L14.41,19.59L9.62,14.79L14.41,10L13,8.59L8.21,13.38L3.41,8.59H3.42Z" /></svg>
